polaris-icons/icons/Metaobject.svg

<svg viewBox="0 0 20 20" xmlns="http://www.w3.org/2000/svg">
  <path fill-rule="evenodd" d="M4 6.5V5C4 4.44772 4.44772 4 5 4H7.5C8.05228 4 8.5 4.44772 8.5 5V6.5H9C9.55228 6.5 10 6.94772 10 7.5V11H11.5V9.5C11.5 8.94772 11.9477 8.5 12.5 8.5H15C15.5523 8.5 16 8.94772 16 9.5V11H16.5C17.0523 11 17.5 11.4477 17.5 12V16C17.5 16.5523 17.0523 17 16.5 17H3.5C2.94772 17 2.5 16.5523 2.5 16V12C2.5 11.9137 2.51094 11.8299 2.5315 11.75C2.51094 11.6701 2.5 11.5863 2.5 11.5V7.5C2.5 6.94772 2.94772 6.5 3.5 6.5H4ZM5.5 6.5V5.5H7V6.5H5.5ZM4 8V11H8.5V8H4ZM14.5 11H13V10H14.5V11ZM16 12.5V15.5H4V12.5H16Z" fill="#5C5F62"/>
</svg>

<svg viewBox="0 0 20 20" xmlns="http://www.w3.org/2000/svg"><path fill-rule="evenodd" d="M4 6.5v-1.5a1 1 0 0 1 1-1h2.5a1 1 0 0 1 1 1v1.5h.5a1 1 0 0 1 1 1v3.5h1.5v-1.5a1 1 0 0 1 1-1h2.5a1 1 0 0 1 1 1v1.5h.5a1 1 0 0 1 1 1v4a1 1 0 0 1-1 1h-13a1 1 0 0 1-1-1v-4c0-.086.01-.17.031-.25a1.002 1.002 0 0 1-.031-.25v-4a1 1 0 0 1 1-1h.5Zm1.5 0v-1h1.5v1h-1.5Zm-1.5 1.5v3h4.5v-3h-4.5Zm10.5 3h-1.5v-1h1.5v1Zm1.5 1.5v3h-12v-3h12Z" fill="#5C5F62"/></svg>
